X:1
T:[ID 3-29]
T:[ID 3-29]
T:Bezeichnung standardisiert: Allegro Allegro 19.
T:Urheber unbekannt Datum in der hier transkribierten schriftlichen Quelle: 1767
C:Urheber unbekannt
C:Datum in der hier transkribierten schriftlichen Quelle: 1767
%%score 1 2
L:1/8
M:2/4
K:D
V:1 treble nm="Primo"
V:2 treble nm="Secondo"
V:1
 d2 d2 | de/f/ g/a/b/c'/ | d'afd | ba Ta2 | dAFD | BA A2 | Tg3 e | f3 d | c/d/e/f/gf | Tfe z2 | %10
 a"^1)" e2 f | ed c2 | cccd | cB TA2 | A2 A2 | AB/c/ d/e/f/^g/ | acdc/B/ | c/c/d/e/ f/^g/a/b/ | %18
 c'aba/^g/ |{^g} a2 z2 :: A2 A2 | AB/c/ d/e/f/^g/ | aecA | z eed | ceed | cggf | Tfe z2 | d2 d2 | %28
 de/f/ g/a/b/c'/ | d'afd | B"^1)" g2 f | c"^1)" a2 g | faab | ag f2 | fffg | fe d2 | d2 d2 | %37
 de/f/ g/a/b/c'/ | d'd{f}ed/c/ |{c} d2 z2 :| %40
V:2
 !fermata!F2 F2 | F2 z2 | fd'af | gf f2 | FdAF | GF F2 | e3 c | d3 B | A/B/c/d/ed | dc z2 | cccd | %11
 cB A2 | aeef | ed c2 | c2 c2 | cd/e/ f/^g/a/b/ | c'aba/^g/ | a/A/B/c/ d/e/f/^g/ | acdc/B/ | %19
 c2 z2 :: c2 c2 | c2 z2 | eaec | z ccB | AccB | Aeed | Tdc z2 | F2 F2 | F2 z2 | fd'af | d e2 d | %31
 e f2 e | dffg | fe d2 | daab | ag f2 | f2 f2 | f2 z2 | fFGF/E/ | F2 z2 :| %40

